app/dist/common/images/asia-potash-intern.svg

<svg height="18" viewBox="0 0 18 18" width="18" xmlns="http://www.w3.org/2000/svg"><path d="m0 0h18v18h-18z" fill="#f0f3fa"/><path d="m3 12h1.88c.07-.18.16-.38.27-.6h2.05l-.53-1.4h-.56c1.42-1.68 4.03-3.55 8.29-4-1.45 0-7.96.48-11.4 6z" fill="#22ad38"/><path d="m12.74 6h-3.74v.92c1.07-.4 2.43-.77 3.74-.92zm-3.74 1.85a16.8 16.8 0 0 1 4.66-1.62c.65.3 1.34 1 1.34 2.32 0 1.6-1.65 2.25-2.19 2.25h-1.9l-.61-1.5h2.19c.26 0 .7-.39.7-.8 0-.53-.44-.7-.64-.7h-1.55v1.2h-1.1l1.2 3h-3.26l-.96-2.48a8.9 8.9 0 0 1 1.47-1.2l.65 2.06zm-.99-.47-.5-1.38h-2.45l-1.9 5.25c1.97-2.44 2.84-3.04 4.86-3.87z" fill="#13336e"/></svg>

<!-- by TradingView --><svg width="18" height="18" viewBox="0 0 18 18" xmlns="http://www.w3.org/2000/svg"><path fill="#F0F3FA" d="M0 0h18v18H0z"/><path d="M3 12h1.88c.07-.18.16-.38.27-.6H7.2L6.67 10h-.56c1.42-1.68 4.03-3.55 8.29-4-1.45 0-7.96.48-11.4 6Z" fill="#22AD38"/><path d="M12.74 6H9v.92c1.07-.4 2.43-.77 3.74-.92ZM9 7.85a16.8 16.8 0 0 1 4.66-1.62c.65.3 1.34 1 1.34 2.32 0 1.6-1.65 2.25-2.19 2.25h-1.9l-.61-1.5h2.19c.26 0 .7-.39.7-.8 0-.53-.44-.7-.64-.7H11V9H9.9l1.2 3H7.84l-.96-2.48a8.9 8.9 0 0 1 1.47-1.2L9 10.38V7.85ZM8.01 7.38 7.51 6H5.06l-1.9 5.25C5.13 8.81 6 8.21 8.02 7.38Z" fill="#13336E"/></svg>
